icons/outline/cpu.svg

<!--
tags: [processor, computer, chip, hardware, technology, electronic]
category: Devices
version: "1.47"
unicode: "ef8e"
-->
<svg
  xmlns="http://www.w3.org/2000/svg"
  width="24"
  height="24"
  viewBox="0 0 24 24"
  fill="none"
  stroke="currentColor"
  stroke-width="2"
  stroke-linecap="round"
  stroke-linejoin="round"
>
  <path d="M5 5m0 1a1 1 0 0 1 1 -1h12a1 1 0 0 1 1 1v12a1 1 0 0 1 -1 1h-12a1 1 0 0 1 -1 -1zm4 3h6v6h-6zm-6 1h2m-2 4h2m5 -11v2m4 -2v2m7 5h-2m2 4h-2m-5 7v-2m-4 2v-2" />
</svg>

<!--
tags: [processor, computer, chip, hardware, technology, electronic]
category: Devices
version: "1.47"
unicode: "ef8e"
-->
<svg
  xmlns="http://www.w3.org/2000/svg"
  width="24"
  height="24"
  viewBox="0 0 24 24"
  fill="none"
  stroke="currentColor"
  stroke-width="2"
  stroke-linecap="round"
  stroke-linejoin="round"
>
    <path d="M5 5m0 1a1 1 0 0 1 1 -1h12a1 1 0 0 1 1 1v12a1 1 0 0 1 -1 1h-12a1 1 0 0 1 -1 -1zM9 9h6v6h-6zM3 10h2M3 14h2M10 3v2M14 3v2M21 10h-2M21 14h-2M14 21v-2M10 21v-2" />
</svg>
